; generated by PrusaSlicer 2.7.4 on 2026-03-08 at 08:15:00 UTC
;
; external perimeters extrusion width = 0.45mm
; perimeters extrusion width = 0.45mm
; infill extrusion width = 0.45mm
; solid infill extrusion width = 0.45mm
; top infill extrusion width = 0.45mm
;
; estimated printing time (normal mode) = 44m 37s
; estimated printing time (silent mode) = 52m 14s
;
; filament used [mm] = 2318.47
; filament used [cm3] = 5.57
; filament used [g] = 7.01
; filament cost = 0.35
; total filament used [g] = 7.01
; total filament cost = 0.35
; layer_count = 148
;
M73 P0 R45
M73 Q0 S52
M201 X1000 Y1000 Z200 E5000
M203 X200 Y200 Z12 E120
M204 P1250 R1250 T2500
M205 X8 Y8
M107
T0
G28
M104 S0
M140 S60
M190 S60
M109 S200
G1 Z0.2 F720
G1 E-2 F2100
G92 E0
;
; BEFORE_LAYER_CHANGE
G92 E0
;0.2
;
G1 X50.0 Y50.0 F7200
G1 Z0.2 F720
G1 F1800 X50.0 Y50.0 E0
G1 X150.0 Y50.0 E4.21
G1 X150.0 Y150.0 E8.42
G1 X50.0 Y150.0 E12.63
G1 X50.0 Y50.0 E16.84
;
; AFTER_LAYER_CHANGE
;0.4
G1 Z0.4 F720
G1 X51.0 Y51.0 F7200
G1 F1800 X51.0 Y51.0 E16.84
G1 X149.0 Y51.0 E21.0
;[... layers 2-147 omitted ...]
;
; BEFORE_LAYER_CHANGE
G92 E0
;29.6
;
G1 Z29.6 F720
G1 X100.0 Y100.0 F7200
G1 F1800 E2318.47
M104 S0
M140 S0
G1 Z30.6 F720
G1 X0 Y200 F7200
M84
; filament used = 2318.47mm
