;FLAVOR:Marlin
;TIME:8134
;Filament used: 6.82m
;Layer height: 0.2
;LAYER_COUNT:312
;MINX:18.4
;MINY:22.1
;MINZ:0.2
;MAXX:181.6
;MAXY:177.9
;MAXZ:62.4
;TARGET_MACHINE.NAME:QIDI X-Plus 3
M82 ;absolute extrusion mode
M201 X500.00 Y500.00 Z100.00 E5000.00
M203 X500.00 Y500.00 Z10.00 E50.00
M204 P500.00 R1000.00 T500.00
M205 X8.00 Y8.00 Z0.40 E5.00
M107
T0
G28 ;home all axes
G1 Z15.0 F6000
M109 S200
M190 S60
G92 E0
G1 F200 E3
G92 E0
G1 F1500 E-3
;LAYER:0
;TYPE:SKIRT
G0 F3600 X17.907 Y65.629 Z0.2
G1 F1500 E0
G1 F1200 X18.382 Y64.872 E0.05
G1 X19.091 Y63.974 E0.12
G1 X19.927 Y63.14 E0.19
G1 X20.879 Y62.39 E0.26
;TYPE:WALL-OUTER
G0 F3600 X20.0 Y20.0
G1 F1200 X180.0 Y20.0 E5.2
G1 X180.0 Y180.0 E10.4
G1 X20.0 Y180.0 E15.6
G1 X20.0 Y20.0 E20.8
;LAYER:1
G0 Z0.4
G1 F1200 X20.0 Y20.0 E21.0
G1 X180.0 Y20.0 E26.2
;[... layers 2-311 omitted for brevity ...]
;LAYER:311
G0 Z62.4
G1 F1200 X90.0 Y90.0 E9850.4
M104 S0
M140 S0
G91
G1 E-2 F2700
G1 Z10 F3000
G28 X0 Y0
M84 X Y E
M82 ;absolute extrusion mode
M104 S0
;End of Gcode
